X:1
T:Sammy Ring the Bell
M:2/4
L:1/8
K:C
 E/2 G3/2 G3/2 A/2| G4| A/2 c3/2 c3/2 d/2| c4| c2 cc| A2 GE| GG G2|\
 D4| G2 G3/2 F/2| E C3| e/2e/2 ee d| c4| ec d/2d/2 B| cA GE| Gc B/2 d3/2|\
 c4|

